dist/svgs/agenda.svg

<!-- Generated by IcoMoon.io -->
<svg version="1.1" xmlns="http://www.w3.org/2000/svg" width="24" height="24" viewBox="0 0 24 24">
<title>agenda</title>
<path d="M19 0h-16c-0.6 0-1 0.4-1 1v22c0 0.6 0.4 1 1 1h16c1.7 0 3-1.3 3-3v-18c0-1.7-1.3-3-3-3zM8 2h4v4.1l-1.4-1c-0.3-0.2-0.8-0.2-1.1 0l-1.5 1v-4.1zM17 22h-13v-20h2v6c0 0.4 0.2 0.7 0.5 0.9s0.7 0.2 1 0l2.5-1.7 2.4 1.6c0.2 0.1 0.4 0.2 0.6 0.2s0.3 0 0.5-0.1c0.3-0.2 0.5-0.5 0.5-0.9v-6h3v20zM20 21c0 0.6-0.4 1-1 1v-20c0.6 0 1 0.4 1 1v18z"></path>
</svg>

<svg xmlns="http://www.w3.org/2000/svg" width="24" height="24"><path d="M19 0H3c-.6 0-1 .4-1 1v22c0 .6.4 1 1 1h16c1.7 0 3-1.3 3-3V3c0-1.7-1.3-3-3-3zM8 2h4v4.1l-1.4-1c-.3-.2-.8-.2-1.1 0L8 6.1V2zm9 20H4V2h2v6c0 .4.2.7.5.9s.7.2 1 0L10 7.2l2.4 1.6c.2.1.4.2.6.2s.3 0 .5-.1c.3-.2.5-.5.5-.9V2h3v20zm3-1c0 .6-.4 1-1 1V2c.6 0 1 .4 1 1v18z"/></svg>
